X:23
T:Prince of Wales Hornpipe,The. JGi.023
T:Worcester Hornpipe,aka. JGi.023
T:Worster Hornpipe,aka. JGi.023
S:Joshua Gibbons MS,1823,Tealby,Lincs.
M:C|
L:1/8
Q:1/2=90
R:.hornpipe
O:Tealby,Lincolnshire
Z:VMP/R.Greig, 2009
K:C
ed|cGEG cege|agab c’2ba|gece gece|dBGB dBGB|
egcg egcg|agab c’2ba|gece fdce|c2c2c2:|
|:gf|egcg egcg|fada eada|egcg egcg|dBGB dBGB|
egcg egcg|agab c’2ba|gece fdBd|c2c2c2:|

